X: 985
T: Havâ Güzel Yine Gülşende
C: Dede Efendi
O: Turkey
F: http://compmusic.upf.edu/node/140
N: hisar--nakis--yuruksemai--hava_guzel--dede_efendi
N: makam= hisar
N: form= nakis
N: usul= yuruksemai = 6/8
M: 6/8
L: 1/16
K: C _1/4B   
Q: 1/4=90
%%MIDI tuningsystem comma53
e4e8e4 e8  | e4^g2f2 f4f2e2 e8  | f3e^d2e2 d2e2d2e2 d6c2  | 
w:  Ha vâ  gü zel   |  yi ne  *  gül *  *  şen  |   | 
c4e8f2^g2 e8  | e4^g2f2 f4f2e2 e4^d4  | \
w:  de  gös te *  riş   |  gü nü *  dür   *  *  Gel   | 
f8 e4^d4 f2e2{g}f2e2  | e16 z8  | 
w:  câ *  *  nım   |  gel   | 
A4e8d4 e4f2g2  | e4e2f2 d6e2 c8  | c12d4 d2c2c2_2/4B2  | \
w:  çe men  çe men   |  sa lın_ *  ey  *  serv_  |   | 
_2/4B2A2A6G2c2d2 e6z2  | 
w:  i  *  kad  *  re *  viş   | 
e4f2g2 e6d2 d6c2  | c2d4c2 c4_2/4B2A2 B4c2B2  | \
w:  gü nü *  dür    |  Câ *  *  *  *  *  nım   | 
c3_2/4BA8z4 A8  | 
w:  gel  *  *  ter   | 
e2d4c2 d4e2f2 g2f2e2d2  | d2c4_2/4B2 c2B2B2A2 A6z2  | \
w:  dil *  *  li  te *  nen  |  dir  *  *  dir  *  *  *  ten   | 
f6ed d4d2c2 d6z2  | 
w:  ten   | 
c2d2e2f2 a2g2f2e2 d2c2_2/4B2A2  | \
w:  ten   | 
_2/4B6A2 B2A2d2c2 c2B2B2A2  | 
w:  na *  te *  ne *  dir   | 
A12z4 A8  | e6d2 c4d4 e3dc2d2  | e12z4 e8  | \
w:  ney   Ey   |  serv_ *  i  re vân   |  *  ey   | 
e2f2e2d2 e4^f4 g2a2f2g2  | 
w:  â *  *  *  fet_ i  cân   | 
e12z4 e2d4c2  | d8 d4d2a2 a2g2f2e2  | \
w:  *  ey   |  kâ şı  ke *  mân   | 
e4f2g2 e6d2 d6c2  | c2d4c2 c4_2/4B2A2 B4c2B2  | 
w:  *  *  *  gel   |  câ *  *  *  *  *  nım   | 
c3_2/4BA8z4 e8  | e8 ^g2f2f2e2 e6^d2  | \
w:  gel   *  *  Ah   |  sab rı *  mı  *  sâ  | 
e8 ^g2f2f2e2 f8  | f4e4 a4a2^g2 g2f4e2  | 
w:  mâ nı *  mı  *  yağ  |  *  ma la dın_ *  ey   | 
f3e^d2e2 d2e2c4 f2e2{g}f2e2  | e16 z8  | \
w:  mâh  *  *  *  *  *  be nim   |  sen   | 
^g4a8a2ag a6z2  | ^g2a2=b2^c'2 d'4=c'2b2 a2g2f2e2  | 
w:  sen   |  sen    | 
c'4=b2a2 a2^g2g2a2 g2f4e2  | e16 z8  | \
w:  be nim  *  *  *  be *  nim   |  sen    | 
A4e18d2  | d2e2f2g2 e2f2d2e2 c2d2c2_2/4B2  | 
w:  Sen   |  sen   | 
e2d2d2c4_2/4B2A4 B4c2B2  | c3_2/4BA16z4  | \
w:  be *  nim  *  *  be nim   |  sen    | 
e4e8e4 e8  | e4^g2f2 f4f2e2 e8  | 
w:  Ha vâ  gü zel   |  yi ne  *  gül *  *  şen  | 
f3e^d2e2 d2e2d2e2 d6c2  | c4e8f2^g2 e8  | \
w:   |  de  gös te *  riş   | 
e4^g2f2 f4f2e2 e4^d4  | 
w:  gü nü *  dür   *  *  Gel   | 
f8 e4^d4 f2e2{g}f2e2  | e16 z8  | A4e8d4 e4f2g2  | \
w:  câ *  *  nım   |  gel   |  çe men  çe men   | 
e4e2f2 d6e2 c8  | 
w:  sa lın_ *  ey  *  serv_  | 
c12d4 d2c2c2_2/4B2  | _2/4B2A2A6G2c2d2 e6z2  | \
w:   |  i  *  kad  *  re *  viş   | 
e4f2g2 e6d2 d6c2  | 
w:  gü nü *  dür    | 
c2d4c2 c4_2/4B2A2 B4c2B2  | c3_2/4BA8z4 A8  | \
w:  Câ *  *  *  *  *  nım   |  gel  *  *  ter   | 
e2d4c2 d4e2f2 g2f2e2d2  | 
w:  dil *  *  li  te *  nen  | 
d2c4_2/4B2 c2B2B2A2 A6z2  | f6ed d4d2c2 d6z2  | \
w:  dir  *  *  dir  *  *  *  ten   |  ten   | 
c2d2e2f2 a2g2f2e2 d2c2_2/4B2A2  | 
w:  ten   | 
_2/4B6A2 B2A2d2c2 c2B2B2A2  | A12z4 A8  | \
w:  na *  te *  ne *  dir   |  ney   Ey   | 
e6d2 c4d4 e3dc2d2  | 
w:  serv_ *  i  re vân   | 
e12z4 e8  | e2f2e2d2 e4^f4 g2a2f2g2  | \
w:  *  ey   |  â *  *  *  fet_ i  cân   | 
e12z4 e2d4c2  | d8 d4d2a2 a2g2f2e2  | 
w:  *  ey   |  kâ şı  ke *  mân   | 
e4f2g2 e6d2 d6c2  | c2d4c2 c4_2/4B2A2 B4c2B2  | \
w:  *  *  *  gel   |  câ *  *  *  *  *  nım   | 
c3_2/4BA8z4 e8  | 
w:  gel   *  *  Ah   | 
e8 ^g2f2f2e2 e6^d2  | e8 ^g2f2f2e2 f8  | \
w:  sab rı *  mı  *  sâ  |  mâ nı *  mı  *  yağ  | 
f4e4 a4a2^g2 g2f4e2  | 
w:  *  ma la dın_ *  ey   | 
f3e^d2e2 d2e2c4 f2e2{g}f2e2  | e16 z8  | \
w:  mâh  *  *  *  *  *  be nim   |  sen   | 
^g4a8a2ag a6z2  | ^g2a2=b2^c'2 d'4=c'2b2 a2g2f2e2  | 
w:  sen   |  sen    | 
c'4=b2a2 a2^g2g2a2 g2f4e2  | e16 z8  | \
w:  be nim  *  *  *  be *  nim   |  sen    | 
A4e18d2  | d2e2f2g2 e2f2d2e2 c2d2c2_2/4B2  | 
w:  Sen   |  sen   | 
e2d2d2c4_2/4B2A4 B4c2B2  | c3_2/4BA16z4  | |


